svg/color/exrd.svg

<svg width="94" height="24" viewBox="0 0 94 24" fill="none" xmlns="http://www.w3.org/2000/svg">
<g clip-path="url(#clip0)">
<path d="M22.1055 9.76465H28.455C30.2448 9.76465 31.6495 10.2884 32.5652 11.175C33.3476 11.9957 33.7704 13.0898 33.7415 14.2183V14.2576C33.7415 16.577 32.3368 17.9667 30.3638 18.5316L34.2097 23.8737H31.2379L27.7375 18.9562H24.6052V23.8737H22.1055V9.76465ZM28.2718 16.7603C30.0617 16.7603 31.2021 15.825 31.2021 14.4016V14.3604C31.2021 12.8491 30.1032 12.0223 28.251 12.0223H24.6052V16.7603H28.2718Z" fill="#003057"/>
<path d="M43.8758 9.66699H46.1962L52.4626 23.8827H49.8194L48.375 20.4765H41.6385L40.1733 23.8827H37.6094L43.8758 9.66699ZM47.4631 18.2712L45.0086 12.6261L42.5542 18.275L47.4631 18.2712Z" fill="#003057"/>
<path d="M56.5391 9.76465H61.8501C66.3267 9.76465 69.4193 12.8079 69.4193 16.7808V16.8201C69.4193 20.7912 66.3267 23.8756 61.8501 23.8756H56.5391V9.76465ZM59.0426 12.0223V21.6179H61.8501C64.8408 21.6179 66.7949 19.6221 66.7949 16.8613V16.8201C66.7949 14.0593 64.8408 12.0223 61.8501 12.0223H59.0426Z" fill="#003057"/>
<path d="M76.3004 9.76465H73.7969V23.8756H76.3004V9.76465Z" fill="#003057"/>
<path d="M93.8152 9.76465L88.8515 16.6593L94.0191 23.8756H91.0681L87.3052 18.4942L83.5593 23.8756H80.6914L85.8401 16.6985L80.8953 9.76465H83.8444L87.3864 14.8842L90.9472 9.76465H93.8152Z" fill="#003057"/>
<path d="M10.4277 20.9064C10.2033 20.9063 9.9822 20.8534 9.7826 20.7519C9.583 20.6504 9.41063 20.5033 9.27973 20.3228L3.6628 12.6146H0V9.80883H4.38781C4.61203 9.80855 4.83308 9.86117 5.0327 9.96233C5.23232 10.0635 5.40475 10.2103 5.53574 10.3906L10.1256 16.6866L17.1283 0.839849C17.2386 0.589991 17.42 0.377437 17.6504 0.228254C17.8808 0.0790713 18.1502 -0.000255949 18.4254 6.20404e-07H27.1878V2.80573H19.3524L11.7266 20.0647C11.6261 20.2923 11.4663 20.4894 11.2636 20.6356C11.0609 20.7819 10.8226 20.8721 10.573 20.8971C10.5227 20.8998 10.4723 20.8998 10.422 20.8971" fill="#00C389"/>
</g>
<defs>
<clipPath id="clip0">
<rect width="94" height="23.873" fill="white"/>
</clipPath>
</defs>
</svg>

<svg xmlns="http://www.w3.org/2000/svg" width="94" height="24" fill="none" viewBox="0 0 94 24"><g clip-path="url(#exrd_svg-a)"><path fill="#003057" d="M22.106 9.765h6.349c1.79 0 3.195.523 4.11 1.41a4.25 4.25 0 0 1 1.177 3.043v.04c0 2.319-1.405 3.709-3.378 4.274l3.846 5.342h-2.972l-3.5-4.918h-3.133v4.918h-2.5zm6.166 6.995c1.79 0 2.93-.935 2.93-2.358v-.042c0-1.51-1.099-2.338-2.951-2.338h-3.646v4.738zm15.604-7.093h2.32l6.267 14.216h-2.644l-1.444-3.406h-6.736l-1.466 3.406H37.61zm3.587 8.604-2.454-5.645-2.455 5.649zm9.077-8.506h5.31c4.477 0 7.57 3.043 7.57 7.016v.04c0 3.97-3.093 7.055-7.57 7.055h-5.31zm2.503 2.257v9.596h2.807c2.99 0 4.945-1.996 4.945-4.757v-.04c0-2.762-1.954-4.799-4.945-4.799zM76.3 9.765h-2.503v14.11H76.3zm17.515 0-4.963 6.894 5.167 7.217h-2.95l-3.764-5.382-3.746 5.382h-2.868l5.15-7.178-4.946-6.933h2.95l3.541 5.12 3.561-5.12z"/><path fill="#00C389" d="M10.428 20.906a1.43 1.43 0 0 1-1.148-.583l-5.617-7.708H0V9.809h4.388a1.42 1.42 0 0 1 1.148.582l4.59 6.296L17.128.84c.11-.25.292-.463.522-.612s.5-.228.775-.228h8.763v2.806h-7.836l-7.625 17.259a1.42 1.42 0 0 1-1.154.832q-.075.005-.151 0"/></g><defs><clipPath id="exrd_svg-a"><path fill="#fff" d="M0 0h94v23.873H0z"/></clipPath></defs></svg>
